X:2306
T:Golden Valley
O:england
M:6/8
L:1/8
C:Trad
R:Quadrille
K:D
A |: f2 A f2 A | fgf efe | d2cd2f | e2c Ade | f2A f2A | fgf efe | dcB AB
c | d3 d3 :|
|: ABc def | a2ge2d | cde ABc | e2d F2G | ABc def | a2g e2d | cde ABc |
d3d3:|
